images/git.svg

<svg width="80" height="80" viewBox="0 0 80 80" fill="none" xmlns="http://www.w3.org/2000/svg">
<g clip-path="url(#clip0)">
<path d="M78.5384 36.4401C78.5352 36.4401 78.5352 36.4385 78.5352 36.4385L43.5384 1.41897C41.6504 -0.473531 38.3464 -0.471903 36.4648 1.41734L1.46159 36.4401C0.520833 37.3864 0 38.6421 0 39.9759C0 41.3113 0.520833 42.5685 1.46484 43.5131L36.4616 78.5326C37.4056 79.4789 38.6621 80.0001 40 80.0001C41.3379 80.0001 42.5944 79.4789 43.5352 78.5342L78.5352 43.5131C79.4792 42.5685 80 41.3113 80 39.9759C80 38.6421 79.4792 37.3864 78.5384 36.4401Z" fill="#EF473B"/>
<path opacity="0.1" d="M78.9364 42.2998L43.5718 77.6857C42.6213 78.6401 41.3516 79.1669 39.9998 79.1669C38.6481 79.1669 37.3784 78.6401 36.4246 77.6841L1.06328 42.2998C0.650075 41.8862 0.33432 41.4052 0.0895691 40.8923C0.271454 41.8789 0.740611 42.7887 1.46469 43.5132L36.4614 78.5327C37.4054 79.479 38.662 80.0002 39.9998 80.0002C41.3377 80.0002 42.5942 79.479 43.535 78.5343L78.535 43.5132C79.2591 42.7887 79.7284 41.8789 79.9103 40.8923C79.6656 41.4052 79.3496 41.8862 78.9364 42.2998Z" fill="#010101"/>
<path d="M56.6667 33.3335C55.4171 33.3335 54.2601 33.7003 53.2593 34.3011L45.6991 26.7408C46.2996 25.7403 46.6667 24.5833 46.6667 23.3335C46.6667 19.6567 43.6751 16.6668 40 16.6668C38.7671 16.6668 37.6257 17.0261 36.6339 17.612L28.4548 9.43188L26.0986 11.7893L34.2775 19.9692C33.6924 20.9604 33.3333 22.1012 33.3333 23.3335C33.3333 26.4312 35.4667 29.0181 38.3333 29.7633V50.2369C35.4667 50.9822 33.3333 53.569 33.3333 56.6668C33.3333 60.3435 36.3249 63.3335 40 63.3335C43.6751 63.3335 46.6667 60.3435 46.6667 56.6668C46.6667 53.569 44.5333 50.9822 41.6667 50.2369V29.7633C42.2559 29.6101 42.8084 29.3772 43.323 29.0783L50.9218 36.6772C50.3512 37.6594 50 38.7845 50 40.0001C50 43.6769 52.9915 46.6668 56.6667 46.6668C60.3418 46.6668 63.3333 43.6769 63.3333 40.0001C63.3333 36.3234 60.3418 33.3335 56.6667 33.3335Z" fill="white"/>
<path opacity="0.2" d="M1.46159 37.2735L36.4648 2.25067C38.3464 0.36143 41.6504 0.359802 43.5384 2.2523L78.5352 37.2718C78.5352 37.2718 78.5352 37.2735 78.5384 37.2735C79.3795 38.1194 79.8616 39.2176 79.9593 40.3928C79.9709 40.2532 80 40.1175 80 39.9759C80 38.6421 79.4792 37.3864 78.5384 36.4401C78.5352 36.4401 78.5352 36.4385 78.5352 36.4385L43.5384 1.41897C41.6504 -0.473531 38.3464 -0.471903 36.4648 1.41734L1.46159 36.4401C0.520833 37.3864 0 38.6421 0 39.9759C0 40.1173 0.0290933 40.253 0.04069 40.3924C0.13855 39.2172 0.620728 38.1192 1.46159 37.2735Z" fill="white"/>
<path d="M61.8288 35.8348C62.7545 36.9796 63.3327 38.4163 63.3327 40.0002C63.3327 43.677 60.3412 46.6669 56.666 46.6669C52.9909 46.6669 49.9994 43.677 49.9994 40.0002C49.9994 38.7846 50.3505 37.6595 50.9212 36.6772L43.3223 29.0784C42.8078 29.3772 42.2552 29.6102 41.666 29.7634V50.237C44.5326 50.9823 46.666 53.5691 46.666 56.6669C46.666 60.3436 43.6745 63.3335 39.9994 63.3335C38.2944 63.3335 36.7533 62.6713 35.5731 61.6144L48.0125 74.0537L74.0222 48.0282L61.8288 35.8348ZM45.6984 26.7409L53.2586 34.3011C54.2594 33.7004 55.4164 33.3335 56.666 33.3335C58.2497 33.3335 59.6869 33.9119 60.8321 34.8381L45.2398 19.2456L45.2317 19.2523C46.1165 20.3837 46.666 21.7889 46.666 23.3335C46.666 24.5833 46.299 25.7404 45.6984 26.7409Z" fill="url(#paint0_linear)"/>
<path d="M78.5384 36.4401C78.5352 36.4401 78.5352 36.4385 78.5352 36.4385L43.5384 1.41897C41.6504 -0.473531 38.3464 -0.471903 36.4648 1.41734L1.46159 36.4401C0.520833 37.3864 0 38.6421 0 39.9759C0 41.3113 0.520833 42.5685 1.46484 43.5131L36.4616 78.5326C37.4056 79.4789 38.6621 80.0001 40 80.0001C41.3379 80.0001 42.5944 79.4789 43.5352 78.5342L78.5352 43.5131C79.4792 42.5685 80 41.3113 80 39.9759C80 38.6421 79.4792 37.3864 78.5384 36.4401Z" fill="url(#paint1_linear)"/>
</g>
<defs>
<linearGradient id="paint0_linear" x1="32.2302" y1="32.2538" x2="61.0213" y2="61.0449" gradientUnits="userSpaceOnUse">
<stop stop-color="#010101" stop-opacity="0.1"/>
<stop offset="1" stop-color="#010101" stop-opacity="0"/>
</linearGradient>
<linearGradient id="paint1_linear" x1="6.71273" y1="24.4665" x2="73.2779" y2="55.5063" gradientUnits="userSpaceOnUse">
<stop stop-color="white" stop-opacity="0.2"/>
<stop offset="1" stop-color="white" stop-opacity="0"/>
</linearGradient>
<clipPath id="clip0">
<rect width="80" height="80" fill="white"/>
</clipPath>
</defs>
</svg>

<svg width="80" height="80" viewBox="0 0 80 80" fill="none" xmlns="http://www.w3.org/2000/svg"><g clip-path="url(#clip0)"><path d="M78.538 36.44c-.003 0-.003-.002-.003-.002L43.538 1.42c-1.888-1.893-5.192-1.89-7.073-.002L1.462 36.44A4.987 4.987 0 000 39.976c0 1.335.52 2.593 1.465 3.537l34.997 35.02A4.964 4.964 0 0040 80a4.956 4.956 0 003.535-1.466l35-35.02A4.974 4.974 0 0080 39.975c0-1.334-.52-2.59-1.462-3.536z" fill="#EF473B"/><path opacity=".1" d="M78.936 42.3L43.572 77.686A5.008 5.008 0 0140 79.166a5.017 5.017 0 01-3.575-1.482L1.063 42.3a5.043 5.043 0 01-.973-1.408 4.964 4.964 0 001.375 2.621l34.996 35.02A4.964 4.964 0 0040 80a4.956 4.956 0 003.535-1.466l35-35.02a4.964 4.964 0 001.375-2.622c-.244.513-.56.994-.974 1.408z" fill="#010101"/><path d="M56.667 33.334c-1.25 0-2.407.366-3.408.967l-7.56-7.56c.6-1 .968-2.158.968-3.407A6.674 6.674 0 0040 16.666c-1.233 0-2.374.36-3.366.945l-8.18-8.18-2.355 2.357 8.179 8.18c-.586.991-.945 2.132-.945 3.364 0 3.098 2.134 5.685 5 6.43v20.474c-2.866.745-5 3.332-5 6.43A6.674 6.674 0 0040 63.333a6.674 6.674 0 006.667-6.666c0-3.098-2.134-5.685-5-6.43V29.763a6.594 6.594 0 001.656-.685l7.599 7.6c-.57.98-.922 2.106-.922 3.322a6.674 6.674 0 006.667 6.667A6.674 6.674 0 0063.333 40a6.674 6.674 0 00-6.666-6.666z" fill="#fff"/><path opacity=".2" d="M1.462 37.273L36.465 2.252c1.881-1.892 5.185-1.892 7.073 0l34.997 35.02s0 .002.003.002a4.97 4.97 0 011.421 3.119c.012-.14.041-.276.041-.417 0-1.334-.52-2.59-1.462-3.536-.003 0-.003-.002-.003-.002L43.538 1.42c-1.888-1.893-5.192-1.89-7.073-.002L1.462 36.44A4.987 4.987 0 000 39.976c0 .141.03.277.04.416a4.97 4.97 0 011.422-3.119z" fill="#fff"/><path d="M61.829 35.835c.925 1.145 1.504 2.581 1.504 4.165a6.674 6.674 0 01-6.667 6.667A6.674 6.674 0 0149.999 40c0-1.215.351-2.34.922-3.323l-7.599-7.599a6.596 6.596 0 01-1.656.685v20.474c2.867.745 5 3.332 5 6.43a6.674 6.674 0 01-6.667 6.666c-1.705 0-3.246-.662-4.426-1.719l12.44 12.44 26.01-26.026-12.194-12.193zm-16.13-9.094l7.56 7.56c1-.6 2.157-.968 3.407-.968 1.584 0 3.02.579 4.166 1.505L45.24 19.246l-.008.006c.885 1.132 1.434 2.537 1.434 4.082 0 1.25-.367 2.406-.968 3.407z" fill="url(#paint0_linear)"/><path d="M78.538 36.44c-.003 0-.003-.002-.003-.002L43.538 1.42c-1.888-1.893-5.192-1.89-7.073-.002L1.462 36.44A4.987 4.987 0 000 39.976c0 1.335.52 2.593 1.465 3.537l34.997 35.02A4.964 4.964 0 0040 80a4.956 4.956 0 003.535-1.466l35-35.02A4.974 4.974 0 0080 39.975c0-1.334-.52-2.59-1.462-3.536z" fill="url(#paint1_linear)"/></g><defs><linearGradient id="paint0_linear" x1="32.23" y1="32.254" x2="61.021" y2="61.045" gradientUnits="userSpaceOnUse"><stop stop-color="#010101" stop-opacity=".1"/><stop offset="1" stop-color="#010101" stop-opacity="0"/></linearGradient><linearGradient id="paint1_linear" x1="6.713" y1="24.466" x2="73.278" y2="55.506" gradientUnits="userSpaceOnUse"><stop stop-color="#fff" stop-opacity=".2"/><stop offset="1" stop-color="#fff" stop-opacity="0"/></linearGradient><clipPath id="clip0"><path fill="#fff" d="M0 0h80v80H0z"/></clipPath></defs></svg>
